ui_kit/lib/assets/icons/more.svg

<svg width="24" height="24" viewBox="0 0 24 24" fill="none" xmlns="http://www.w3.org/2000/svg">
<path d="M12 7.00313C13.1226 7.00313 14 6.12188 14 4.99688C14 3.89063 13.1038 3 12 3C10.9057 3 10 3.89062 10 4.99687C10 6.09375 10.9057 7.00313 12 7.00313ZM12 13.9781C13.1226 13.9781 14 13.1063 14 12C14 10.9031 13.1038 10.0125 12 10.0125C10.9057 10.0125 10 10.9031 10 12C10 13.0875 10.9057 13.9781 12 13.9781ZM12 21C13.1226 21 14 20.1188 14 19.0031C14 17.8875 13.1038 16.9969 12 16.9969C10.9057 16.9969 10 17.8875 10 19.0031C10 20.0906 10.9057 21 12 21Z" fill="#F5F9FF" fill-opacity="0.95"/>
</svg>

<svg xmlns="http://www.w3.org/2000/svg" width="24" height="24" fill="none" viewBox="0 0 24 24"><path fill="#F5F9FF" fill-opacity=".95" d="M12 7.003c1.123 0 2-.881 2-2.006A1.997 1.997 0 0 0 12 3c-1.094 0-2 .89-2 1.997 0 1.097.906 2.006 2 2.006Zm0 6.975c1.123 0 2-.872 2-1.978a2 2 0 0 0-4 0c0 1.088.906 1.978 2 1.978ZM12 21c1.123 0 2-.881 2-1.997a1.999 1.999 0 0 0-2-2.006c-1.094 0-2 .89-2 2.006 0 1.088.906 1.997 2 1.997Z"/></svg>
